X:35
T:Winterbourn Down Stick Dance
M:4/4
L:1/8
Q:160
N:Tune written by former member of the side
Z:Brian Martin
K:G
{f}g2gf gdBd|edcB ABcA|G2GB dBGB|cAFA G4:|
A2AGFE D2|d2dcBA G2|{f}g2gf gdBd|ecAF G4:||

